public/img/man-question.svg

<svg
	width="226"
	height="369"
	viewBox="0 0 226 369"
	fill="none"
	xmlns="http://www.w3.org/2000/svg"
>
	<path
		d="M222.89 300.939C215.9 261.674 207.161 248.584 207.161 248.584L203.823 245.576L199.808 241.954L199.827 241.488L198.875 241.112L198.652 240.91L198.285 240.583L198.226 240.657L198.102 240.807L179.935 233.634L156.887 224.54L146.215 208.426C144.477 205.802 142.239 203.681 139.677 202.229C137.115 200.777 134.298 200.035 131.448 200.059L97.3634 200.352C92.7548 200.392 88.3256 202.433 84.9467 206.073L62.5435 230.212L27.635 249.578L27.5761 249.51L27.2095 249.814L21.8159 252.81L22.0384 254.156L18.7001 256.954C18.7001 256.954 9.96152 269.135 2.97065 305.67C1.19225 314.966 0.316858 334.908 0.000887941 359.481C-0.0149832 360.724 0.18205 361.959 0.580525 363.112C0.979 364.266 1.57097 365.317 2.32202 366.202C3.07306 367.088 3.96819 367.791 4.95537 368.272C5.94255 368.752 7.00207 369 8.07234 369H194.525L217.797 369C218.867 368.999 219.925 368.752 220.912 368.272C221.898 367.792 222.793 367.09 223.544 366.205C224.295 365.321 224.887 364.272 225.286 363.119C225.685 361.966 225.883 360.733 225.869 359.491C225.56 332.751 224.685 311.02 222.89 300.939Z"
		fill="#3F3D56"
	/>
	<path
		d="M119.758 185.185C144.42 185.185 164.412 161.962 164.412 133.315C164.412 104.668 144.42 81.4448 119.758 81.4448C95.0968 81.4448 75.1045 104.668 75.1045 133.315C75.1045 161.962 95.0968 185.185 119.758 185.185Z"
		fill="#9E616A"
	/>
	<path
		d="M108.335 182.645C108.144 182.158 107.954 181.668 107.764 181.177C107.837 181.179 107.91 181.192 107.983 181.194L108.335 182.645Z"
		fill="#2F2E41"
	/>
	<path
		d="M73.8628 83.8033C76.1212 81.7105 78.7608 79.7849 81.6484 79.8932C84.5359 80.0013 87.464 83.0307 86.8658 86.3138C92.1696 75.4055 100.612 67.0156 110.71 62.6171C120.808 58.2185 131.918 58.0922 142.089 62.2604C149.265 65.2016 156.303 71.0856 157.952 79.7158C158.375 81.9312 158.466 84.3603 159.657 86.1593C161.158 88.4274 164.031 88.9405 166.396 88.1426C166.42 88.1346 166.443 88.1266 166.467 88.1184C166.867 87.9599 167.298 87.9443 167.705 88.0736C168.112 88.203 168.477 88.4713 168.752 88.844C169.026 89.2166 169.198 89.6763 169.245 90.1638C169.293 90.6512 169.213 91.1438 169.016 91.578L166.986 95.9771C169.545 96.6399 172.205 96.5742 174.738 95.7856C175.159 95.6574 175.604 95.6836 176.011 95.8605C176.419 96.0375 176.769 96.3566 177.014 96.774C177.26 97.1914 177.388 97.6867 177.381 98.192C177.374 98.6973 177.233 99.1878 176.977 99.5962C170.281 110.275 159.095 117.17 147.679 117.089C139.566 117.032 131.369 113.784 123.473 115.951C120.418 116.789 117.564 118.412 115.119 120.699C112.674 122.986 110.701 125.879 109.345 129.167C107.989 132.456 107.284 136.055 107.281 139.701C107.278 143.347 107.979 146.947 109.33 150.238C106.904 147.156 102.215 147.886 99.7339 150.908C97.2526 153.93 96.6103 158.44 96.8603 162.606C97.2426 168.977 99.3917 174.981 101.657 180.825C82.6621 180.13 64.6956 164.652 58.6481 143.717C52.5752 122.695 58.9398 97.6316 73.8628 83.8033Z"
		fill="#2F2E41"
	/>
	<path
		opacity="0.2"
		d="M43.9512 289.084L56.4756 368.24L63.9905 369L43.9512 289.084Z"
		fill="black"
	/>
	<path
		opacity="0.2"
		d="M181.91 283.115L169.386 368.182L161.871 369L181.91 283.115Z"
		fill="black"
	/>
	<path
		d="M84.5451 57.164C82.1437 58.3288 79.6379 57.0523 78.5871 54.129C77.5202 51.1609 78.5166 48.148 80.9565 46.9646C83.3966 45.781 85.8577 47.0606 86.9418 50.0765C88.0097 53.0472 87.0241 55.9616 84.5451 57.164ZM79.945 41.1225L78.0357 42.0486C77.5587 42.2772 77.0252 42.2896 76.5407 42.0832C76.0563 41.8768 75.6562 41.4667 75.4196 40.9341L75.3251 40.7195C73.2707 36.4156 73.0354 31.1847 74.6297 25.1805C76.1065 19.7945 76.7199 16.0065 75.4863 12.5747C74.06 8.607 71.0144 7.3641 67.1305 9.16458C65.6241 9.89523 65.1448 9.88358 63.9594 11.2496C63.7015 11.5503 63.3941 11.7877 63.0556 11.9475C62.7171 12.1073 62.3543 12.1863 61.9889 12.1797C61.6357 12.1749 61.287 12.0875 60.9635 11.9227C60.64 11.7579 60.3483 11.5192 60.106 11.2207C59.6391 10.6454 59.3775 9.88575 59.3741 9.09513C59.3706 8.30451 59.6256 7.54184 60.0875 6.96112C62.08 4.53828 64.4832 2.62151 67.1455 1.33175C75.4903 -2.71587 79.6912 3.25986 81.6136 8.60758C83.4938 13.8383 82.4361 18.6915 80.7367 24.9768C79.3125 30.1996 79.3955 34.0696 81.0132 37.9176C81.13 38.2085 81.195 38.5238 81.2043 38.8446C81.2135 39.1654 81.1669 39.4851 81.0671 39.7844C80.9673 40.0838 80.8165 40.3566 80.6237 40.5865C80.4309 40.8165 80.2 40.9988 79.945 41.1225Z"
		fill="#E6622E"
	/>
</svg>

<svg xmlns="http://www.w3.org/2000/svg" width="226" height="369" fill="none"><path fill="#3F3D56" d="M222.89 300.939c-6.99-39.265-15.729-52.355-15.729-52.355l-3.338-3.008-4.015-3.622.019-.466-.952-.376-.223-.202-.367-.327-.059.074-.124.15-18.167-7.173-23.048-9.094-10.672-16.114c-1.738-2.624-3.976-4.745-6.538-6.197-2.562-1.452-5.379-2.194-8.229-2.17l-34.085.293c-4.608.04-9.037 2.081-12.416 5.721l-22.404 24.139-34.908 19.366-.059-.068-.367.304-5.393 2.996.222 1.346-3.338 2.798S9.962 269.135 2.97 305.67C1.193 314.966.318 334.908 0 359.481a10.724 10.724 0 0 0 .58 3.631 9.629 9.629 0 0 0 1.742 3.09 8.14 8.14 0 0 0 2.633 2.07c.988.48 2.047.728 3.117.728h209.725a7.12 7.12 0 0 0 3.115-.728 8.137 8.137 0 0 0 2.632-2.067 9.621 9.621 0 0 0 1.742-3.086c.399-1.153.597-2.386.583-3.628-.309-26.74-1.184-48.471-2.979-58.552Z"/><path fill="#9E616A" d="M119.758 185.185c24.662 0 44.654-23.223 44.654-51.87s-19.992-51.87-44.654-51.87c-24.661 0-44.653 23.223-44.653 51.87s19.992 51.87 44.653 51.87Z"/><path fill="#2F2E41" d="M108.335 182.645c-.191-.487-.381-.977-.571-1.468.073.002.146.015.219.017l.352 1.451ZM73.863 83.803c2.258-2.093 4.898-4.018 7.785-3.91 2.888.108 5.816 3.138 5.218 6.42 5.304-10.907 13.746-19.297 23.844-23.696 10.098-4.398 21.208-4.525 31.379-.357 7.176 2.942 14.214 8.826 15.863 17.456.423 2.215.514 4.644 1.705 6.443 1.501 2.268 4.374 2.781 6.739 1.984l.071-.025c.4-.158.831-.174 1.238-.044.407.129.772.397 1.047.77.274.373.446.832.493 1.32a2.78 2.78 0 0 1-.229 1.414l-2.03 4.4a14.08 14.08 0 0 0 7.752-.192 1.832 1.832 0 0 1 1.273.075c.408.176.758.496 1.003.913.246.417.374.913.367 1.418a2.724 2.724 0 0 1-.404 1.404c-6.696 10.679-17.882 17.574-29.298 17.493-8.113-.057-16.31-3.305-24.206-1.138-3.055.838-5.909 2.461-8.354 4.748-2.445 2.287-4.418 5.18-5.774 8.468-1.356 3.289-2.061 6.888-2.064 10.534-.003 3.646.698 7.246 2.049 10.537-2.426-3.082-7.115-2.352-9.596.67s-3.124 7.532-2.874 11.698c.383 6.371 2.532 12.375 4.797 18.219-18.995-.695-36.961-16.173-43.009-37.108-6.073-21.022.292-46.085 15.215-59.914Z"/><path fill="#000" d="m43.951 289.084 12.525 79.156 7.514.76-20.039-79.916ZM181.91 283.115l-12.524 85.067-7.515.818 20.039-85.885Z" opacity=".2"/><path fill="#E6622E" d="M84.545 57.164c-2.401 1.165-4.907-.112-5.958-3.035-1.067-2.968-.07-5.981 2.37-7.164 2.44-1.184 4.9.096 5.985 3.111 1.068 2.971.082 5.886-2.397 7.088Zm-4.6-16.041-1.91.926a1.795 1.795 0 0 1-1.494.034c-.485-.206-.885-.616-1.121-1.149l-.095-.215c-2.054-4.303-2.29-9.534-.695-15.539 1.477-5.386 2.09-9.174.856-12.605-1.426-3.968-4.472-5.21-8.356-3.41-1.506.73-1.985.719-3.17 2.085-.258.3-.566.538-.904.697-.339.16-.702.24-1.067.233a2.324 2.324 0 0 1-1.025-.257 2.671 2.671 0 0 1-.858-.702c-.467-.576-.729-1.335-.732-2.126-.003-.79.252-1.553.713-2.134 1.993-2.423 4.396-4.34 7.058-5.63C75.49-2.715 79.691 3.26 81.614 8.609c1.88 5.23.822 10.084-.877 16.369-1.424 5.223-1.341 9.093.276 12.94a2.73 2.73 0 0 1 .054 1.867c-.1.3-.25.573-.443.803-.193.23-.424.412-.679.535Z"/></svg>
